!!!!SEGMENT: pl-kk--i-540--001-008_rychling-wincenty-waclaw--kompleta-hymn-do-godzinek-zawitaj-pani-swiata.krn
!!!cenid: 18xx:4468
!!!COM: Rychling, Wincenty Wacław
!!!COM-rismID: pe50046026
!!!CDT: 1841/01/09-1896/01/11
!!!CNT: Polish
!!!GTL: Kompleta
!!!OTL: Hymn do Godzinek/Zawitaj Pani świata
!!!OMV: 008
!!!PDT:
!!!AGN: Sacred; Hymns
!!!YEC: Copyright 2022 Narodowy Instytut Fryderyka Chopina (https://polishscores.org)
!!!YEM: License CC-BY-4.0 (https://creativecommons.org/licenses/by/4.0)
!!!SMS-siglum: PL-Kk
!!!SMS-shelfmark: I.540
!!!SMS-variant:
!!!SMS-altvar:
!!!SMS-shelfwork: 001-008 G
!!!NIFC-rismSourceID: 1001210701
!!!NIFC-rismChildID: 1001210722
!!!NIFC-islandoraID: pl-kk:16958
!!!URL-pdf-islandora: https://repozytorium.nifc.pl/islandora/object/pl-kk%3A16958/datastream/PDF/view
!!!URL-scan: https://polish.musicsources.pl/pl/lokalizacje/galeria/rekopisy/7167/4 @EN{Scan on Polish Music Sources Website} @PL{Skany w portalu Dziedzictwo Muzyki Polskiej w otwartym dostępie}
!!!IIIF:
!!!ONB-nifc: UWAGA: źródło tylko w wersji partyturowej, skan 4-5.
!!!OMD:
!!!AIN: 2 male
!!!key: d
**kern	**text	**kern	**text
*part2	*part2	*part1	*part1
*staff2	*staff2	*staff1	*staff1
*I"[Voice]	*	*I"[Voice]	*
*Imale	*	*Imale	*
*ICvox	*	*ICvox	*
*clefF4	*	*clefG2	*
*	*	*ITrd8c12	*
*k[b-]	*	*k[b-]	*
*d:	*	*d:	*
*M3/4	*	*M3/4	*
=1	=1	=1	=1
!!LO:TX:t=P:problem=all/left
!!LO:TX:t=P:problem=all\right
4F\	.	4C/ 4F 4A	Za-
4E\	.	4C#X/ 4G 4A	-wi-
4D\	.	4D/ 4F 4A	-taj
=2	=2	=2	=2
*^	*	*^	*
*	*2\right	*	*	*2\right	*
2A/	2C#X\	.	4A/	2E\	Pa-
.	.	.	4G/	.	.
4A/	4D\	.	4F/	4D\	-ni
=3	=3	=3	=3	=3	=3
4B-/	2.AA\	.	2.E/	2.C#X\	świa-
4A/	.	.	.	.	.
4G/	.	.	.	.	.
=4	=4	=4	=4	=4	=4
2F/	2D\	.	2D/	2D\	-ta
4r	4ryy	.	4r	4ryy	.
=5	=5	=5	=5	=5	=5
2G/	2C\	.	2c/	2E\	Nie-
4A/	4F\	.	4c/	4F\	-bies-
=6	=6	=6	=6	=6	=6
2A/	2D\	.	2d/	2F\	-ka
4A/	4A\	.	4c/	4E\	Kró-
!!LO:LB:g=original
=7	=7	=7	=7	=7	=7
2A/	2.E\	.	2.B/	4E\	-lo-
.	.	.	.	4F\	.
4G#X/	.	.	.	8E\L	.
.	.	.	.	8D\J	.
=8	=8	=8	=8	=8	=8
2A/	2A\	.	2A/	2C\	-wa
4r	4ryy	.	4r	4ryy	.
=9	=9	=9	=9	=9	=9
2c/	2A\	.	2c/	2F\	Wi-
4c/	4F\	.	4c/	4A\	-taj
=10	=10	=10	=10	=10	=10
4c/	4G\	.	4B-/	4E\	Pan-
4c/	4F\	.	4A/	4F\	-no
4c/	4B-\	.	4G/	4E\	nad
=11	=11	=11	=11	=11	=11
2c/	2A\	.	2c/	4F\	Pan-
.	.	.	.	4C\	.
4c/	4G\	.	4B-/	8D\L	.
.	.	.	.	8E\J	.
=12	=12	=12	=12	=12	=12
2c/	2F\	.	2A/	2F\	-ny
4r	4ryy	.	4r	4ryy	.
!!LO:PB:g=original
=13	=13	=13	=13	=13	=13
2c/	2C\	.	2G/	2E\	Gwiaz-
4c/	4C\	.	4G/	4E\	-do
=14	=14	=14	=14	=14	=14
2c/	2F\	.	2A/	2F\	po-
4G/	4BB-\	.	4G/	4D\	-ran-
=15	=15	=15	=15	=15	=15
2.E/	2.AA\	.	2.A/	4D\	-ko-
.	.	.	.	8C#X\L	.
.	.	.	.	8BB\J	.
.	.	.	.	4C#\	.
=16	=16	=16	=16	=16	=16
2F/	2D\	.	2D/	2D\	-wa
4r	4ryy	.	4r	4ryy	.
*v	*v	*	*	*	*
*	*	*v	*v	*
==	==	==	==
*-	*-	*-	*-
!!!system-decoration: {(s1,s2)}
!!!ENC: Andrzej Gręziak
!!!END: 2023-10-27
!!!EED: Marta Chmielewska
!!!EEV: 2024-04-18
